src/package/assets/icons/status_error.svg

<svg width="20" height="20" viewBox="0 0 20 20" fill="none" xmlns="http://www.w3.org/2000/svg">
<rect x="0.8" y="0.8" width="18.4" height="18.4" rx="9.2" stroke="#BD4D45" stroke-width="1.6"/>
<path d="M9.29289 8.18196C9.68342 8.57248 10.3166 8.57248 10.7071 8.18196L13.3336 5.55547C13.6404 5.24869 14.1378 5.24869 14.4445 5.55547C14.7513 5.86224 14.7513 6.35963 14.4445 6.6664L11.818 9.29289C11.4275 9.68342 11.4275 10.3166 11.818 10.7071L14.4445 13.3336C14.7513 13.6404 14.7513 14.1378 14.4445 14.4445C14.1378 14.7513 13.6404 14.7513 13.3336 14.4445L10.7071 11.818C10.3166 11.4275 9.68342 11.4275 9.29289 11.818L6.6664 14.4445C6.35963 14.7513 5.86224 14.7513 5.55547 14.4445C5.24869 14.1378 5.24869 13.6404 5.55547 13.3336L8.18196 10.7071C8.57248 10.3166 8.57248 9.68342 8.18196 9.29289L5.55547 6.6664C5.24869 6.35963 5.24869 5.86224 5.55547 5.55547C5.86224 5.24869 6.35963 5.24869 6.6664 5.55547L9.29289 8.18196Z" fill="#BD4D45"/>
</svg>

<svg xmlns="http://www.w3.org/2000/svg" width="20" height="20" fill="none">
  <rect width="18.4" height="18.4" x=".8" y=".8" fill="currentColor" rx="9.2"/>
  <rect width="18.4" height="18.4" x=".8" y=".8" stroke="currentColor" stroke-width="1.6" rx="9.2"/>
  <path fill="#fff" d="M9.293 8.182a1 1 0 0 0 1.414 0l2.627-2.627a.786.786 0 1 1 1.11 1.111l-2.626 2.627a1 1 0 0 0 0 1.414l2.627 2.627a.785.785 0 1 1-1.111 1.11l-2.627-2.626a1 1 0 0 0-1.414 0l-2.627 2.627a.786.786 0 1 1-1.11-1.111l2.626-2.627a1 1 0 0 0 0-1.414L5.555 6.666a.786.786 0 1 1 1.111-1.11l2.627 2.626Z"/>
</svg>
